packages/dnb-eufemia/assets/icons/chat_medium.svg

<svg width="25" height="24" viewBox="0 0 25 24" fill="none" xmlns="http://www.w3.org/2000/svg">
<path d="M6.75119 12.75L3.75119 15.75V10.726C2.67408 10.2172 1.80254 9.35645 1.28029 8.28577C0.75805 7.2151 0.616286 5.99841 0.878379 4.83634C1.14047 3.67428 1.79077 2.63623 2.72204 1.89338C3.65331 1.15053 4.80994 0.747244 6.00119 0.750014H9.00119C10.132 0.749937 11.2327 1.11485 12.1395 1.79049C13.0463 2.46614 13.7108 3.41641 14.0342 4.50001M23.2512 13.5C23.2513 12.8105 23.1156 12.1278 22.8518 11.4908C22.588 10.8538 22.2013 10.2749 21.7138 9.78741C21.2263 9.29988 20.6475 8.91317 20.0104 8.64938C19.3734 8.38559 18.6907 8.24988 18.0012 8.25001H15.0012C13.6088 8.25001 12.2734 8.80314 11.2889 9.7877C10.3043 10.7723 9.75119 12.1076 9.75119 13.5C9.75119 14.8924 10.3043 16.2278 11.2889 17.2123C12.2734 18.1969 13.6088 18.75 15.0012 18.75H15.7512L20.2512 23.25V18.226C21.1471 17.8028 21.9046 17.134 22.4356 16.2975C22.9666 15.4609 23.2495 14.4909 23.2512 13.5Z" stroke="black" stroke-width="1.5" stroke-linecap="round" stroke-linejoin="round"/>
</svg>

<svg width="24" height="24" viewBox="0 0 24 24" fill="none" xmlns="http://www.w3.org/2000/svg"><path d="m6.751 12.75-3 3v-5.024A5.239 5.239 0 0 1 6.001.75h3a5.252 5.252 0 0 1 5.033 3.75m9.217 9a5.25 5.25 0 0 0-5.25-5.25h-3a5.25 5.25 0 1 0 0 10.5h.75l4.5 4.5v-5.024a5.237 5.237 0 0 0 3-4.726Z" stroke="#000" stroke-width="1.5" stroke-linecap="round" stroke-linejoin="round"/></svg>
